!!!!SEGMENT: pl-kk--kk-i-1--007-004_anonim--missa-mater-matris-sanctus.krn
!!!cenid: 15xx:686
!!!COM: Anonim
!!!COM-rismID: pe30004985
!!!CDT:
!!!CNT:
!!!OPR: Missa Mater matris
!!!OTL: Sanctus
!!!OMV: 004
!!!PDT:
!!!AGN:
!!!SMS-siglum: PL-Kk
!!!SMS-shelfmark: Kk.I.1
!!!SMS-shelfwork: 007-004 M
!!!SMS-variant:
!!!SMS-altvar:
!!!NIFC-rismSourceID: 300257954
!!!NIFC-rismChildID: 300257961
!!!NIFC-islandoraID: pl-kk:1
!!!URL-pdf-islandora: https://repozytorium.nifc.pl/islandora/object/pl-kk%3A1/datastream/PDF/view
!!!URL-scan: https://polish.musicsources.pl/pl/lokalizacje/galeria/rekopisy/5736 @EN{Scan on Polish Music Sources Website} @PL{Skany w portalu Dziedzictwo Muzyki Polskiej w otwartym dostępie}
!!!IIIF: https://repozytorium.nifc.pl/islandora/object/pl-kk%3A1/datastream/IIIF/view
!!!ONB-nifc: UWAGA: Cantus (s. 52v-59r, skan 0055-0061), Altus (s. 52v-59v, skan 0245-0252), Tenor (s. 51r-58r, skan 0439-0446), Bassus (s. 51r-58r, skan 0612-0619). Części Mszy: 1. Kyrie, 2. Et in terra, 3. Patrem, 4. Sanctus, 5. Agnus Dei
!!!AIN: 1 alto 1 bass 1 soprn 1 tenor
!!!key:
**kern	**text	**kern	**text	**kern	**text	**kern	**text
*part4	*part4	*part3	*part3	*part2	*part2	*part1	*part1
*staff4	*staff4	*staff3	*staff3	*staff2	*staff2	*staff1	*staff1
*I"BASSVS	*	*I"TENOR	*	*I"ALTVS	*	*I"CANTVS	*
*I'B	*	*I'T	*	*I'A	*	*I'C	*
*Ibass	*	*Itenor	*	*Ialto	*	*Isoprn	*
*ICvox	*	*ICvox	*	*ICvox	*	*ICvox	*
*clefF4	*	*clefC4	*	*clefC3	*	*clefC4	*
*k[b-]	*	*k[b-]	*	*k[b-]	*	*k[b-]	*
*d:	*	*d:	*	*d:	*	*d:	*
*M2/1	*	*	*	*M2/1	*	*M2/1	*
*met(C|)	*	*	*	*met(C)	*	*met(C|)	*
=1-	=1-	=1-	=1-	=1-	=1-	=1-	=1-
*xywh-#617:5820,2794,4397,917	*	*xywh-#445:1213,502,4489,886	*	*xywh-#250:1284,2897,4457,770	*	*xywh-#60:1251,584,4236,834	*
*all\right	*	*all\right	*	*all\right	*	*all\right	*
*2\right	*	*2\right	*	*2\right	*	*2\right	*
00r	.	0G	San-	00r	.	0G	San-
=2-	=2-	=2-	=2-	=2-	=2-	=2-	=2-
!	!	!	!	!	!	!LO:TX:t=P:problem=kreska pseudotaktowa	!
.	.	1G	.	.	.	1B-	.
.	.	1F	-ctus	.	.	1c	-ctus
=3-	=3-	=3-	=3-	=3-	=3-	=3-	=3-
!LO:TX:t=P:problem=kreska pseudotaktowa	!	!	!	!	!	!	!
00rC	.	1.B-	.	0G	.	1d	.
.	.	.	.	.	.	2G/	.
.	.	2G/	.	.	.	1d\	.
=4-	=4-	=4-	=4-	=4-	=4-	=4-	=4-
.	.	1B-	.	1G	San-	.	.
.	.	.	.	.	.	4c\	.
!	!	!	!	!	!	!LO:TX:t=P:problem=kreska pseudotaktowa	!
.	.	.	.	.	.	4B-\	.
.	.	1c	.	1F	.	1A	.
=5-	=5-	=5-	=5-	=5-	=5-	=5-	=5-
!	!	!	!	!	!	!LO:TX:t=P:problem=kreska pseudotaktowa	!
0GG	.	1d	.	1.B-	-ctus	1G	.
.	.	2G/	.	.	.	2G/	.
.	.	1d\	.	2G/	.	1B-\	.
=6-	=6-	=6-	=6-	=6-	=6-	=6-	=6-
!LO:TX:t=P:problem=kreska pseudotaktowa	!	!	!	!	!	!	!
1GG	San-	.	.	1B-	.	.	.
.	.	4c\	.	.	.	4A/	.
!	!	!	!	!	!	!LO:TX:t=P:problem=kreska pseudotaktowa	!
.	.	4B-/	.	.	.	4G/	.
1FF	-ctus	1A	.	1c	.	4A/	.
.	.	.	.	.	.	4G/	.
.	.	.	.	.	.	4F/	.
!	!	!	!	!	!	!LO:TX:t=P:problem=kreska pseudotaktowa	!
.	.	.	.	.	.	4E/	.
=7-	=7-	=7-	=7-	=7-	=7-	=7-	=7-
2BB-/	.	2r	.	1d	.	2D/	.
1GG	.	2D/	.	.	.	1G	.
.	.	2E/	.	2G/	.	.	.
!LO:TX:t=P:problem=kreska pseudotaktowa	!	!	!	!	!	!LO:TX:t=P:problem=kreska pseudotaktowa	!
2BB-/	.	2D/	.	1d\	.	2F/	.
=8-	=8-	=8-	=8-	=8-	=8-	=8-	=8-
2AA/	.	2E/	.	.	.	2A/	.
*	*	*	*	*	*	*custos:d	*
2GG/	.	1G	.	4c/	.	1D	.
.	.	.	.	4B-/	.	.	.
1.D	.	.	.	1A	.	.	.
*	*	*	*	*	*	*clefC3	*
*	*	*	*	*	*	*xywh-#60:1249,1178,4389,881	*
!	!	!	!	!	!	!LO:LB:g=original	!
.	.	4F/	.	.	.	1d\	.
.	.	4E/	.	.	.	.	.
=9-	=9-	=9-	=9-	=9-	=9-	=9-	=9-
.	.	1F	.	2rA	.	.	.
!LO:TX:t=P:problem=kreska pseudotaktowa	!	!	!	!	!	!LO:TX:t=P:problem=kreska pseudotaktowa	!
2BB-/	.	.	.	2D/	.	2d/	.
2C/	.	2rF	.	2E/	.	2c/	.
2D/	.	2F/	.	2D/	.	2A/	.
=10-	=10-	=10-	=10-	=10-	=10-	=10-	=10-
2C/	.	2G/	.	2E/	.	2c/	.
2GG/	.	1B-	.	1G	.	2.d/	.
!LO:TX:t=P:problem=kreska pseudotaktowa	!	!	!	!	!	!	!
1D	.	.	.	.	.	.	.
.	.	.	.	.	.	4c/	.
!	!	!	!	!	!	!LO:TX:t=P:problem=kreska pseudotaktowa	!
.	.	4A/	.	4F/	.	2d/	.
*	*	*	*	*custos:F	*	*	*
.	.	4G/	.	4E/	.	.	.
*	*	*	*	*clefC4	*	*	*
!	!	!	!	!LO:PB:g=original	!	!	!
=11-	=11-	=11-	=11-	=11-	=11-	=11-	=11-
*	*	*	*	*xywh-#250:5862,608,4411,765	*	*	*
*	*	*custos:D	*	*	*	*	*
2r	.	2A/	.	1F	.	2c/	.
*	*	*xywh-#445:1248,1248,4378,775	*	*	*	*	*
!	!	!LO:LB:g=original	!	!	!	!	!
2BB-/	.	2D/	.	.	.	2d/	.
2C/	.	2E/	.	2rF	.	2c/	.
!LO:TX:t=P:problem=kreska pseudotaktowa	!	!	!	!	!	!LO:TX:t=P:problem=kreska pseudotaktowa	!
2D/	.	2D/	.	2F/	.	2B-/	.
=12-	=12-	=12-	=12-	=12-	=12-	=12-	=12-
2C/	.	2E/	.	2G/	.	2c/	.
2GG/	.	2D/	.	1B-	.	1d	.
*custos:AA	*	*	*	*	*	*	*
!LO:TX:t=P:problem=kreska pseudotaktowa	!	!	!	!	!	!	!
1BB-	.	1d	.	.	.	.	.
.	.	.	.	4A/	.	4c/	.
!	!	!	!	!	!	!LO:TX:t=P:problem=kreska pseudotaktowa	!
.	.	.	.	4G/	.	4B-/	.
!LO:PB:g=original	!	!	!	!	!	!	!
=13-	=13-	=13-	=13-	=13-	=13-	=13-	=13-
*xywh-#618:1148,621,4528,901	*	*	*	*	*	*	*
2AA/	.	2rc	.	2A/	.	2c/	.
!LO:TX:t=P:problem=kreska pseudotaktowa	!	!	!	!	!	!	!
2BB-/	.	2d\	.	2D/	.	2B-/	.
2C/	.	2c\	.	2E/	.	2G/	.
!	!	!	!	!	!	!LO:TX:t=P:problem=kreska pseudotaktowa	!
2GG/	.	2d\	.	2D/	.	2B-/	.
=14-	=14-	=14-	=14-	=14-	=14-	=14-	=14-
2C/	.	2G/	.	2E/	.	2G/	.
4BB-/	.	2.d\	.	2D/	.	2F/	.
!LO:TX:t=P:problem=kreska pseudotaktowa	!	!	!	!	!	!	!
4AA/	.	.	.	.	.	.	.
1GG	.	.	.	1d	.	2B-/	.
.	.	4c\	.	.	.	.	.
*	*	*	*	*	*	*custos:g	*
.	.	4B-\	.	.	.	2G/	.
.	.	4A/	.	.	.	.	.
!	!	!	!	!	!	!LO:LB:g=original	!
=15-	=15-	=15-	=15-	=15-	=15-	=15-	=15-
*	*	*	*	*	*	*xywh-#60:1261,2018,4359,857	*
2rGG	.	2G/	.	2rc	.	1g	.
!LO:TX:t=P:problem=kreska pseudotaktowa	!	!	!	!	!	!	!
2GG/	.	2B-/	.	2d\	.	.	.
!	!	!	!	!	!	!LO:TX:t=P:problem=kreska pseudotaktowa	!
2AA/	.	2A/	.	2c\	.	1f	.
2BB-/	.	2D/	.	2d\	.	.	.
=16-	=16-	=16-	=16-	=16-	=16-	=16-	=16-
2C/	.	2E/	.	2G/	.	2rf	.
4BB-/	.	2D/	.	2.d\	.	2f\	.
!LO:TX:t=P:problem=kreska pseudotaktowa	!	!	!	!	!	!	!
4AA/	.	.	.	.	.	.	.
1GG	.	2E/	.	.	.	1g	.
.	.	.	.	4c\	.	.	.
.	.	2D/	.	4B-\	.	.	.
.	.	.	.	4A\	.	.	.
=17-	=17-	=17-	=17-	=17-	=17-	=17-	=17-
2C/	.	4E/	.	2G/	.	2c/	.
.	.	4D/	.	.	.	.	.
!LO:TX:t=P:problem=kreska pseudotaktowa	!	!	!	!	!	!LO:TX:t=P:problem=kreska pseudotaktowa	!
2BB-/	.	1G	.	2B-/	.	2d/	.
*	*	*	*	*custos:G	*	*	*
2C/	.	.	.	1A	.	2e/	.
2D/	.	2F/	.	.	.	2d/	.
*	*	*	*	*clefC3	*	*	*
!	!	!	!	!LO:LB:g=original	!	!	!
=18-	=18-	=18-	=18-	=18-	=18-	=18-	=18-
*	*	*	*	*xywh-#250:5864,1396,4498,782	*	*	*
!LO:TX:t=P:problem=kreska pseudotaktowa	!	!	!	!	!	!LO:TX:t=P:problem=kreska pseudotaktowa	!
1GG	.	1G	.	1G	.	1d	.
*	*	*custos:G	*	*	*	*	*
1rBB	.	1rA	.	1rA	.	1r	.
!	!	!LO:LB:g=original	!	!	!	!	!
=19-	=19-	=19-	=19-	=19-	=19-	=19-	=19-
*	*	*xywh-#445:1254,2035,4378,874	*	*	*	*	*
0GG	ple-	0G	ple-	0B-	ple-	0d	ple-
=20-	=20-	=20-	=20-	=20-	=20-	=20-	=20-
!LO:TX:t=P:problem=kreska pseudotaktowa	!	!	!	!	!	!LO:TX:t=P:problem=kreska pseudotaktowa	!
0E	-ni	0C	-ni	0G	-ni	0g	-ni
=21-	=21-	=21-	=21-	=21-	=21-	=21-	=21-
!	!	!	!LO:MO:mod=sunt	!	!	!	!
0D	ſ(un)t	0F	sut	1A	sunt	0f	sunt
.	.	.	.	1B-	.	.	.
=22-	=22-	=22-	=22-	=22-	=22-	=22-	=22-
*custos:D	*	*	*	*	*	*	*
!LO:TX:t=P:problem=kreska pseudotaktowa	!	!	!	!	!	!	!
0C	ce-	0G	ce-	0c	ce-	0e	.
!LO:LB:g=original	!	!	!	!	!	!	!
=23-	=23-	=23-	=23-	=23-	=23-	=23-	=23-
*xywh-#618:1238,1426,4421,782	*	*	*	*	*	*	*
!	!	!	!	!	!	!LO:TX:t=P:problem=kreska pseudotaktowa	!
1.D	.	0F	-li	1A	-li	00f	ce-
.	.	.	.	0d	et	.	.
!LO:TX:t=P:problem=kreska pseudotaktowa	!	!	!	!	!	!	!
2BB-/	-li	.	.	.	.	.	.
=24-	=24-	=24-	=24-	=24-	=24-	=24-	=24-
1BB-	et	1B-	et	.	.	.	.
1F	ter-	1A	ter-	1c	ter-	.	.
=25-	=25-	=25-	=25-	=25-	=25-	=25-	=25-
1BB-	-ra	1B-	.	1d	-ra	0f	-li
1F	.	1A	-ra	1.c	.	.	.
=26-	=26-	=26-	=26-	=26-	=26-	=26-	=26-
!LO:TX:t=P:problem=kreska pseudotaktowa	!	!	!	!	!	!	!
1E-X	.	1G	.	.	.	1g	et
.	.	.	.	2B-/	.	.	.
!	!	!	!	!	!	!LO:TX:t=P:problem=kreska pseudotaktowa	!
1D	.	0F	.	0B-	.	1d	ter-
=27-	=27-	=27-	=27-	=27-	=27-	=27-	=27-
1C	.	.	.	.	.	0e	-ra
1C	.	1E	.	1A	.	.	.
=28-	=28-	=28-	=28-	=28-	=28-	=28-	=28-
!LO:TX:t=P:problem=kreska pseudotaktowa	!	!	!	!	!	!	!
0BB-	.	0F	.	0B-	.	0d	.
=29-	=29-	=29-	=29-	=29-	=29-	=29-	=29-
!	!	!	!	!	!	!LO:TX:t=P:problem=kreska pseudotaktowa	!
!	!	!	!	!	!	!LO:TX:a:t=3	!
1.BB-	.	2rF	.	1rc	.	0.d	glo-
.	.	1F	glo-	.	.	.	.
.	.	.	.	0B-	glo-	.	.
4AA/	glo-	2.G/	-ri-	.	.	.	.
4GG/	-ri-	.	.	.	.	.	.
=30-	=30-	=30-	=30-	=30-	=30-	=30-	=30-
2GG/	-a	.	.	.	.	.	.
.	.	4F/	-a	.	.	.	.
!LO:TX:t=P:problem=kreska pseudotaktowa	!	!	!	!	!	!	!
2BB-/	.	2D/	.	.	.	.	.
2C/	.	2E/	tu-	1A	-ri-	2c/	-ri-
*	*	*	*	*	*	*custos:d	*
!	!	!	!	!	!	!LO:TX:t=P:problem=kreska pseudotaktowa	!
2D/	.	2F/	-a	.	.	2A/	.
!	!	!	!	!	!	!LO:LB:g=original	!
=31-	=31-	=31-	=31-	=31-	=31-	=31-	=31-
*	*	*	*	*	*	*xywh-#60:1190,2812,4471,1016	*
!	!	!	!	!	!	!LO:TX:t=P:problem=kreska pseudotaktowa	!
2GG/	.	2G/	.	1B-	-a	1d	-a
1D	tu-	2F/	.	.	.	.	.
.	.	1E	.	1.A	tu-	1r	.
!LO:TX:t=P:problem=kreska pseudotaktowa	!	!	!	!	!	!	!
2C/	-a	.	.	.	.	.	.
=32-	=32-	=32-	=32-	=32-	=32-	=32-	=32-
2D/	.	1D	.	.	.	2r	.
!	!	!	!	!	!	!LO:TX:t=P:problem=kreska pseudotaktowa	!
2BB-/	.	.	.	2G/	-a	2d\	glo-
2C/	.	0.C	.	0G	.	2.e\	-ri-
2.Eny/	.	.	.	.	.	.	.
.	.	.	.	.	.	4d/	-a
=33-	=33-	=33-	=33-	=33-	=33-	=33-	=33-
.	.	.	.	.	.	2c/	tu-
4D/	.	.	.	.	.	.	.
!	!	!	!	!	!	!LO:TX:t=P:problem=kreska pseudotaktowa	!
4C/	.	.	.	.	.	2c/	-a
*custos:AA	*	*	*	*	*	*	*
4BB-/	.	.	.	.	.	.	.
*	*	*	*	*custos:G	*	*	*
*xywh-#618:1272,2130,4410,861	*	*	*	*	*	*	*
!LO:LB:g=original	!	!	!	!	!	!	!
1AA	.	.	.	1F	.	1c	.
!	!	!	!	!LO:LB:g=original	!	!	!
=34-	=34-	=34-	=34-	=34-	=34-	=34-	=34-
*	*	*	*	*xywh-#250:5875,2080,4423,908	*	*	*
1.GG	.	1D	.	1G	.	1B-	.
*	*	*custos:F	*	*	*	*	*
!	!	!	!	!	!	!LO:TX:t=P:problem=kreska pseudotaktowa	!
.	.	0G	o-	0B-	.	0d	O-
!LO:TX:t=P:problem=kreska pseudotaktowa	!	!	!	!	!	!	!
2AA/	o-	.	.	.	.	.	.
!	!	!LO:LB:g=original	!	!	!	!	!
=35-	=35-	=35-	=35-	=35-	=35-	=35-	=35-
*	*	*xywh-#445:1242,2828,4390,775	*	*	*	*	*
2BB-/	-ſan-	.	.	.	.	.	.
2C/	-na	.	.	.	.	.	.
1D	.	1F	-ſan-	1A	.	1d	-ſan-
=36-	=36-	=36-	=36-	=36-	=36-	=36-	=36-
!LO:TX:t=P:problem=kreska pseudotaktowa	!	!	!	!	!	!	!
1GG	in	1G	-na	1B-	.	0d	-na
1D	ex-	1F	.	1.A	.	.	.
=37-	=37-	=37-	=37-	=37-	=37-	=37-	=37-
!	!	!	!	!	!	!LO:TX:t=P:problem=kreska pseudotaktowa	!
1C	.	1E	in	.	.	1e	in
.	.	.	.	2G/	.	.	.
1GG	-cel-	0D	ex-	0G	.	1B-	ex-
=38-	=38-	=38-	=38-	=38-	=38-	=38-	=38-
0AA	-ſis	.	.	.	.	0c	-cel-
.	.	1C	-cel-	1F	.	.	.
=39-	=39-	=39-	=39-	=39-	=39-	=39-	=39-
!	!	!	!	!	!	!LO:TX:t=P:problem=kreska pseudotaktowa	!
0GG	.	0D	-ſis	000G	.	0B-	-ſis
=40-	=40-	=40-	=40-	=40-	=40-	=40-	=40-
00C\	.	00E	.	.	.	00c	.
=41-	=41-	=41-	=41-	=41-	=41-	=41-	=41-
.	.	.	.	.	.	.	.
=42-	=42-	=42-	=42-	=42-	=42-	=42-	=42-
*	*	*	*	*	*	*custos:d	*
0GG	.	0D	.	.	.	0B-	.
!	!	!	!	!	!	!LO:PB:g=original	!
=43||-	=43||-	=43-	=43-	=43-	=43-	=43||-	=43||-
*	*	*	*	*	*	*xywh-#60:5933,578,4489,881	*
1.G	Be-	00r	.	00rc	.	1d	.
!	!	!	!	!	!	!LO:TX:t=P:problem=kreska pseudotaktowa	!
.	.	.	.	.	.	1d	Be-
4F\	-ne-	.	.	.	.	.	.
!LO:TX:t=P:problem=kreska pseudotaktowa	!	!	!	!	!	!	!
4G\	.	.	.	.	.	.	.
=44-	=44-	=44-	=44-	=44-	=44-	=44-	=44-
!LO:TX:t=P:problem=2\right&colon; global	!	!	!	!	!	!	!
2A\	-dic-	.	.	.	.	2c/	-ne-
1G	-tus	.	.	.	.	2B-/	-dic-
!	!	!	!	!	!	!LO:TX:t=P:problem=kreska pseudotaktowa	!
.	.	.	.	.	.	1A	-tus
!LO:TX:t=P:problem=kreska pseudotaktowa	!	!	!	!	!	!	!
2F\	.	.	.	.	.	.	.
=45-	=45-	=45-	=45-	=45-	=45-	=45-	=45-
2.G\	.	00rF	.	1.G	Be-	2G/	.
.	.	.	.	.	.	2B-/	.
*custos:E	*	*	*	*	*	*	*
4F\	.	.	.	.	.	.	.
*xywh-#618:1193,2835,4495,799	*	*	*	*	*	*	*
!LO:LB:g=original	!	!	!	!	!	!	!
2E/	.	.	.	.	.	2c/	.
!LO:TX:t=P:problem=kreska pseudotaktowa	!	!	!	!	!	!LO:TX:t=P:problem=kreska pseudotaktowa	!
2D/	.	.	.	4F/	-ne-	2d/	.
.	.	.	.	4G/	-dic-	.	.
=46-	=46-	=46-	=46-	=46-	=46-	=46-	=46-
2C/	.	.	.	2A/	-tus	2A/	.
2BB-/	.	.	.	1G	.	2d/	.
1AA	.	.	.	.	.	1c	.
.	.	.	.	2F/	.	.	.
=47-	=47-	=47-	=47-	=47-	=47-	=47-	=47-
!	!	!	!	!	!	!LO:TX:t=P:problem=kreska pseudotaktowa	!
1.GG	.	1.G	.	4G/	.	1B-	.
.	.	.	.	4A/	.	.	.
.	.	.	.	4B-/	.	.	.
*	*	*	*	*custos:d	*	*	*
.	.	.	.	4c/	.	.	.
*	*	*	*	*xywh-#250:5887,2886,4371,684	*	*	*
!	!	!	!	!LO:LB:g=original	!	!	!
.	.	.	.	1d	.	1r	.
!LO:TX:t=P:problem=kreska pseudotaktowa	!	!	!	!	!	!	!
2BB-/	.	4F/	Be-	.	.	.	.
.	.	4G/	-ne-	.	.	.	.
=48-	=48-	=48-	=48-	=48-	=48-	=48-	=48-
2AA/	.	2A/	-dic-	2c/	.	2r	.
!	!	!	!	!	!	!LO:TX:t=P:problem=kreska pseudotaktowa	!
2BB-/	.	1G	-tuſ	2B-/	.	2d/	.
2C/	.	.	.	1A	.	2c/	.
!LO:TX:t=P:problem=kreska pseudotaktowa	!	!	!	!	!	!	!
2D/	.	2F/	.	.	.	2A/	.
=49-	=49-	=49-	=49-	=49-	=49-	=49-	=49-
2.GG/	.	2G/	.	2G/	.	2B-/	.
!	!	!	!	!	!	!LO:TX:t=P:problem=kreska pseudotaktowa	!
.	.	1B-	.	1d	.	2G/	.
4AA/	.	.	.	.	.	.	.
2BB-/	.	.	.	.	.	2F/	.
!LO:TX:t=P:problem=kreska pseudotaktowa	!	!	!	!	!	!	!
2FF/	.	2A/	.	4c/	.	1c\	.
.	.	.	.	4d/	.	.	.
=50-	=50-	=50-	=50-	=50-	=50-	=50-	=50-
2C/	.	2G/	.	2e\	.	.	.
!	!	!	!	!	!	!LO:TX:t=P:problem=kreska pseudotaktowa	!
2FF/	.	2F/	.	1d	.	2A/	.
*	*	*custos:D	*	*	*	*	*
2GG/	.	1E	.	.	.	2B-/	.
!LO:TX:t=P:problem=kreska pseudotaktowa	!	!	!	!	!	!	!
2AA/	.	.	.	2c/	.	2A/	.
!	!	!LO:PB:g=original	!	!	!	!	!
=51-	=51-	=51-	=51-	=51-	=51-	=51-	=51-
*	*	*xywh-#445:5939,554,4471,915	*	*	*	*	*
*	*	*	*	*	*	*custos:c	*
2BB-/	.	2D/	.	2d/	.	2F/	.
*	*	*	*	*	*	*xywh-#60:5914,1143,4400,1028	*
!	!	!	!	!	!	!LO:LB:g=original	!
4FF/	.	1A	.	1f	.	1c	.
4GG/	.	.	.	.	.	.	.
4AA/	.	.	.	.	.	.	.
4BB-/	.	.	.	.	.	.	.
!LO:TX:t=P:problem=kreska pseudotaktowa	!	!	!	!	!	!LO:TX:t=P:problem=kreska pseudotaktowa	!
2C/	.	4G/	.	2e/	.	2c/	.
.	.	4F/	.	.	.	.	.
=52-	=52-	=52-	=52-	=52-	=52-	=52-	=52-
2BB-/	.	2B-/	.	2d/	.	2d\	.
2C/	.	1A	.	2c/	.	2e\	.
*custos:E	*	*	*	*	*	*	*
2D/	.	.	.	1B-	.	2f\	.
*xywh-#618:5761,581,4348,912	*	*	*	*	*	*	*
!LO:PB:g=original	!	!	!	!	!	!	!
!LO:TX:t=P:problem=kreska pseudotaktowa	!	!	!	!	!	!	!
2E\	.	2G/	.	.	.	4e\	.
.	.	.	.	.	.	4d\	.
=53-	=53-	=53-	=53-	=53-	=53-	=53-	=53-
!	!	!	!	!	!	!LO:TX:t=P:problem=kreska pseudotaktowa	!
2F\	.	1A	.	1.A	.	0c	.
1F	.	.	.	.	.	.	.
.	.	0rF	.	.	.	.	.
!LO:TX:t=P:problem=kreska pseudotaktowa	!	!	!	!	!	!	!
2E/	.	.	.	4G/	.	.	.
.	.	.	.	4A/	.	.	.
=54-	=54-	=54-	=54-	=54-	=54-	=54-	=54-
2D/	.	.	.	2B-/	.	0r	.
2C/	.	.	.	1A	.	.	.
!LO:TX:t=P:problem=kreska pseudotaktowa	!	!	!	!	!	!	!
1BB-	.	1rA	.	.	.	.	.
.	.	.	.	2G/	.	.	.
=55-	=55-	=55-	=55-	=55-	=55-	=55-	=55-
1.AA	.	1.E	.	1.A	.	1.c	.
4BB-/	.	4D/	.	4G/	.	4B-/	.
*	*	*	*	*custos:B	*	*	*
!LO:TX:t=P:problem=kreska pseudotaktowa	!	!	!	!	!	!LO:TX:t=P:problem=kreska pseudotaktowa	!
4AA/	.	4E/	.	4A/	.	4c/	.
!	!	!	!	!LO:PB:g=original	!	!	!
=56-	=56-	=56-	=56-	=56-	=56-	=56-	=56-
*	*	*	*	*xywh-#251:1298,487,4351,921	*	*	*
2D/	.	2F/	.	2B-/	.	2d/	.
4AA/	.	1E	.	1A	.	1c	.
!LO:TX:t=P:problem=kreska pseudotaktowa	!	!	!	!	!	!	!
4BB-/	.	.	.	.	.	.	.
4C/	.	.	.	.	.	.	.
4AA/	.	.	.	.	.	.	.
2BB-/	.	2D/	.	2G/	.	2B-/	.
=57-	=57-	=57-	=57-	=57-	=57-	=57-	=57-
!LO:TX:t=P:problem=kreska pseudotaktowa	!	!	!	!	!	!LO:TX:t=P:problem=kreska pseudotaktowa	!
0AA	.	1E	.	1A	.	0c	.
.	.	1rA	.	2rA	.	.	.
.	.	.	.	2A/	qui	.	.
=58-	=58-	=58-	=58-	=58-	=58-	=58-	=58-
00rD	.	2rF	.	2B-/	.	00r	.
.	.	2A/	qui	2c/	ve-	.	.
.	.	2B-/	.	2d/	-nit	.	.
.	.	2G/	ve-	2e/	.	.	.
=59-	=59-	=59-	=59-	=59-	=59-	=59-	=59-
.	.	2A/	.	2f/	.	.	.
.	.	2B-/	-nit	2g/	.	.	.
.	.	2G/	.	2e/	.	.	.
.	.	1A\	.	2.f/	.	.	.
=60-	=60-	=60-	=60-	=60-	=60-	=60-	=60-
!	!	!	!	!	!	!LO:TX:t=P:problem=kreska pseudotaktowa	!
0rD	.	.	.	.	.	0r	.
.	.	.	.	4e/	.	.	.
.	.	2F/	.	1d	.	.	.
.	.	1E	.	.	.	.	.
.	.	.	.	2c/	.	.	.
=61-	=61-	=61-	=61-	=61-	=61-	=61-	=61-
1.D	qui	2D/	.	1.d	.	1.f	.
.	.	1A	.	.	.	.	.
4E/	.	4G/	.	4c/	.	4e\	.
!LO:TX:t=P:problem=kreska pseudotaktowa	!	!	!	!	!	!LO:TX:t=P:problem=kreska pseudotaktowa	!
4D/	ve-	4A/	.	4d/	.	4f\	.
=62-	=62-	=62-	=62-	=62-	=62-	=62-	=62-
*	*	*custos:A	*	*	*	*	*
2G\	-nit	2B-/	.	2e\	.	2g\	.
*	*	*xywh-#445:5988,1359,4419,851	*	*	*	*	*
!	!	!LO:LB:g=original	!	!	!	!	!
4D/	.	1A	.	1d	.	1f	.
4E/	.	.	.	.	.	.	.
4F/	.	.	.	.	.	.	.
4D/	.	.	.	.	.	.	.
*custos:D	*	*	*	*	*	*custos:f	*
!LO:TX:t=P:problem=kreska pseudotaktowa	!	!	!	!	!	!LO:TX:t=P:problem=kreska pseudotaktowa	!
2E/	.	2G/	.	2c/	.	2e\	.
!LO:LB:g=original	!	!	!	!	!	!LO:LB:g=original	!
=63-	=63-	=63-	=63-	=63-	=63-	=63-	=63-
*xywh-#618:5818,1387,4399,675	*	*	*	*	*	*xywh-#60:5873,1960,4447,1010	*
1.D	.	1.A	.	1.d	.	1.f	.
4E/	.	4G/	.	4c/	.	4e\	.
*	*	*	*	*custos:e	*	*	*
!	!	!	!	!	!	!LO:TX:t=P:problem=kreska pseudotaktowa	!
4D/	.	4A/	.	4d/	.	4f\	.
!	!	!	!	!LO:LB:g=original	!	!	!
=64-	=64-	=64-	=64-	=64-	=64-	=64-	=64-
*	*	*	*	*xywh-#251:1293,1323,4328,830	*	*	*
!LO:TX:t=P:problem=kreska pseudotaktowa	!	!	!	!	!	!	!
2G\	.	2B-/	.	2e\	.	2g\	.
4D/	.	1A	.	1d	.	1f	.
4E/	.	.	.	.	.	.	.
4F/	.	.	.	.	.	.	.
4D/	.	.	.	.	.	.	.
!LO:TX:t=P:problem=kreska pseudotaktowa	!	!	!	!	!	!	!
2E/	.	2G/	.	2c/	.	2e\	.
=65-	=65-	=65-	=65-	=65-	=65-	=65-	=65-
!	!	!	!	!	!	!LO:TX:t=P:problem=kreska pseudotaktowa	!
0D	.	0A	.	1d	.	1f	.
.	.	.	.	2r	.	1ra	.
.	.	.	.	2.d\	qui	.	.
=66-	=66-	=66-	=66-	=66-	=66-	=66-	=66-
0.BB-	.	0.B-	.	.	.	2.d\	qui
.	.	.	.	4e\	.	.	.
.	.	.	.	2f\	ve-	.	.
!	!	!	!	!	!	!LO:TX:t=P:problem=kreska pseudotaktowa	!
.	.	.	.	.	.	4e\	.
.	.	.	.	2B-/	.	2f\	.
!	!	!	!	!	!	!LO:TX:t=P:problem=kreska pseudotaktowa	!
.	.	.	.	2.f\	-nit	2B-/	.
=67-	=67-	=67-	=67-	=67-	=67-	=67-	=67-
.	.	.	.	.	.	2.f\	.
.	.	.	.	4e/	.	.	.
.	.	.	.	4d/	.	.	.
!	!	!	!	!	!	!LO:TX:t=P:problem=kreska pseudotaktowa	!
.	.	.	.	4c/	.	4e/	.
2.B-\	.	2r	.	2B-/	.	4d/	.
.	.	.	.	.	.	4c/	.
.	.	1B-\	in	2.f\	.	2.B-/	.
!LO:TX:t=P:problem=kreska pseudotaktowa	!	!	!	!	!	!	!
4A\	.	.	.	.	.	.	.
=68-	=68-	=68-	=68-	=68-	=68-	=68-	=68-
2G\	.	.	.	.	.	.	.
.	.	.	.	4e\	.	4c/	ve-
!	!	!	!	!	!	!LO:TX:t=P:problem=kreska pseudotaktowa	!
2F\	.	2A/	no-	2d/	.	2d/	-nit
2E-X/	.	2G/	-(m)i-	4c/	.	1e	.
.	.	.	.	4B-/	.	.	.
!LO:TX:t=P:problem=kreska pseudotaktowa	!	!	!	!	!	!	!
2D/	.	2F/	-(n)e	1B-/	.	.	.
=69-	=69-	=69-	=69-	=69-	=69-	=69-	=69-
1C	.	1c	do-	.	.	1e	.
.	.	.	.	2A/	.	.	.
!LO:TX:t=P:problem=kreska pseudotaktowa	!	!	!	!	!	!LO:TX:t=P:problem=kreska pseudotaktowa	!
1rD	.	1B-	-(mine)	1B-	.	1d	.
=70-	=70-	=70-	=70-	=70-	=70-	=70-	=70-
1.BB-	.	2r	.	2rA	.	2r	.
.	.	1F	.	1B-	.	1d	.
4C/	.	4E/	.	4A/	.	4c/	.
*	*	*	*	*	*	*custos:e	*
!LO:TX:t=P:problem=kreska pseudotaktowa	!	!	!	!	!	!	!
4BB-/	.	4F/	.	4B-/	.	4d/	.
!	!	!	!	!	!	!LO:LB:g=original	!
=71-	=71-	=71-	=71-	=71-	=71-	=71-	=71-
*	*	*	*	*	*	*xywh-#60:5873,2812,4471,840	*
*	*	*	*	*custos:B	*	*	*
2Eny/	.	2G/	.	2c/	.	2e\	.
*	*	*	*	*xywh-#251:1270,2097,4351,734	*	*	*
!	!	!	!	!LO:LB:g=original	!	!	!
4BB-/	.	1F	.	1B-	.	1d	.
4C/	.	.	.	.	.	.	.
4D/	.	.	.	.	.	.	.
4BB-/	.	.	.	.	.	.	.
*custos:BB	*	*	*	*	*	*	*
!LO:TX:t=P:problem=kreska pseudotaktowa	!	!	!	!	!	!LO:TX:t=P:problem=kreska pseudotaktowa	!
2C/	.	2E/	.	2A/	.	2c/	.
!LO:LB:g=original	!	!	!	!	!	!	!
=72-	=72-	=72-	=72-	=72-	=72-	=72-	=72-
*xywh-#618:5812,2113,4461,816	*	*	*	*	*	*	*
1.BB-	.	1.F	.	1.B-	.	1.d	.
4C/	.	4E/	.	4A/	.	4c/	.
!LO:TX:t=P:problem=kreska pseudotaktowa	!	!	!	!	!	!LO:TX:t=P:problem=kreska pseudotaktowa	!
4BB-/	.	4F/	.	4B-/	.	4d/	.
=73-	=73-	=73-	=73-	=73-	=73-	=73-	=73-
2E/	.	2G/	.	2c/	.	2e\	.
4BB-/	.	1F	.	1B-	.	1d	.
4C/	.	.	.	.	.	.	.
4D/	.	.	.	.	.	.	.
4BB-/	.	.	.	.	.	.	.
*	*	*custos:F	*	*	*	*	*
!LO:TX:t=P:problem=kreska pseudotaktowa	!	!	!	!	!	!LO:TX:t=P:problem=kreska pseudotaktowa	!
2C/	.	2E/	.	2A/	.	2c/	.
!	!	!LO:LB:g=original	!	!	!	!	!
=74-	=74-	=74-	=74-	=74-	=74-	=74-	=74-
*	*	*xywh-#445:5958,2134,4495,845	*	*	*	*	*
0BB-	.	0F	.	1B-	.	1d	.
!	!	!	!	!	!	!LO:TX:t=P:problem=kreska pseudotaktowa	!
.	.	.	.	2rA	.	1r	.
.	.	.	.	2.B-/	in	.	.
=75-	=75-	=75-	=75-	=75-	=75-	=75-	=75-
!LO:TX:t=P:problem=kreska pseudotaktowa	!	!	!	!	!	!	!
0.GG	.	0.G	.	.	.	2.B-/	in
.	.	.	.	4c/	no-	.	.
.	.	.	.	2d/	-(m)i-	.	.
.	.	.	.	.	.	4c/	.
.	.	.	.	2G/	-(n)e	2d/	no-
!	!	!	!	!	!	!LO:TX:t=P:problem=kreska pseudotaktowa	!
.	.	.	.	2.d/	.	2G/	-mi-
=76-	=76-	=76-	=76-	=76-	=76-	=76-	=76-
.	.	.	.	.	.	2.d/	.
.	.	.	.	4c/	.	.	.
.	.	.	.	4B-/	.	.	.
!	!	!	!	!	!	!LO:TX:t=P:problem=kreska pseudotaktowa	!
.	.	.	.	4A/	.	4c/	.
2.G\	in	2rF	.	2G/	.	4B-/	.
.	.	.	.	.	.	4A/	.
*	*	*	*ij	*	*	*	*
.	.	1G/	do-	2.d/	do-	2.G/	.
!LO:TX:t=P:problem=kreska pseudotaktowa	!	!	!	!	!	!	!
4F/	no-	.	.	.	.	.	.
=77-	=77-	=77-	=77-	=77-	=77-	=77-	=77-
2E/	-(m)i-	.	.	.	.	.	.
.	.	.	.	4c/	-mi-	4A/	-ne
!LO:TX:t=P:problem=kreska pseudotaktowa	!	!	!	!	!	!LO:TX:t=P:problem=kreska pseudotaktowa	!
2D/	-(n)e	2F/	.	2B-/	-ni	2B-/	.
*	*	*	*	*	*	*custos:c	*
2C/	do-	2E/	.	2A/	.	1c	do-
!LO:TX:t=P:problem=kreska pseudotaktowa	!	!	!	!	!	!	!
2BB-/	-mi-	2D/	.	1G/	.	.	.
!	!	!	!	!	!	!LO:PB:g=original	!
=78-	=78-	=78-	=78-	=78-	=78-	=78-	=78-
*	*	*	*	*	*	*xywh-#61:1190,543,4346,871	*
!LO:TX:t=P:problem=kreska pseudotaktowa	!	!	!	!	!	!	!
1AA	-ni	1A	-(mi)-	.	.	1c	-mi-
*	*	*	*	*custos:G	*	*	*
.	.	.	.	2F/	.	.	.
*	*	*	*	*xywh-#251:1344,2753,4317,864	*	*	*
!LO:TX:t=P:problem=kreska pseudotaktowa	!	!	!	!	!	!LO:TX:t=P:problem=kreska pseudotaktowa	!
!	!	!	!	!LO:LB:g=original	!	!	!
1rC	.	1G	-(ne)	1G	.	1B-	-ni
*	*	*	*Xij	*	*	*	*
=79-	=79-	=79-	=79-	=79-	=79-	=79-	=79-
1.GG	.	2rF	.	2rF	.	2rA	.
.	.	1D	.	1G	.	1B-	o-
4AA/	o-	4C/	.	4F/	o-	4A/	-ſan-
!LO:TX:t=P:problem=kreska pseudotaktowa	!	!	!	!	!	!LO:TX:t=P:problem=kreska pseudotaktowa	!
4GG/	-ſan-	4D/	o-	4G/	-ſan-	4B-/	.
=80-	=80-	=80-	=80-	=80-	=80-	=80-	=80-
2C/	-na	2E/	-ſan-	2A/	-na	2c/	-na
4GG/	.	1D	-na	1G	.	1B-	.
!LO:TX:t=P:problem=kreska pseudotaktowa	!	!	!	!	!	!	!
4AA/	.	.	.	.	.	.	.
4BB-/	.	.	.	.	.	.	.
4GG/	.	.	.	.	.	.	.
*custos:GG	*	*	*	*	*	*	*
!LO:TX:t=P:problem=kreska pseudotaktowa	!	!	!	!	!	!LO:TX:t=P:problem=kreska pseudotaktowa	!
2AA/	.	2C/	.	2F/	.	2A/	.
!LO:LB:g=original	!	!	!	!	!	!	!
=81-	=81-	=81-	=81-	=81-	=81-	=81-	=81-
*xywh-#618:5812,2857,4472,726	*	*	*	*	*	*	*
1.GG	.	1.D	in	1.G	.	1.B-	.
4AA/	.	4C/	ex-	4F/	.	4A/	.
!LO:TX:t=P:problem=kreska pseudotaktowa	!	!	!	!	!	!LO:TX:t=P:problem=kreska pseudotaktowa	!
4GG/	.	4D/	-cel-	4G/	.	4B-/	.
=82-	=82-	=82-	=82-	=82-	=82-	=82-	=82-
2C/	.	2E/	-ſis	2A/	.	2c/	.
4GG/	.	1D	.	1G	.	1B-	.
4AA/	.	.	.	.	.	.	.
4BB-/	.	.	.	.	.	.	.
4GG/	.	.	.	.	.	.	.
!LO:TX:t=P:problem=kreska pseudotaktowa	!	!	!	!	!	!	!
2AA/	.	2C/	.	2F/	.	2A/	.
=83-	=83-	=83-	=83-	=83-	=83-	=83-	=83-
!LO:TX:t=P:problem=kreska pseudotaktowa	!	!	!	!	!	!LO:TX:t=P:problem=kreska pseudotaktowa	!
0.GG	.	0D	.	1G	.	1B-	.
.	.	.	.	2rF	.	2rA	.
.	.	.	.	2.G/	in	2.B-/	in
=84-	=84-	=84-	=84-	=84-	=84-	=84-	=84-
.	.	2rF	.	.	.	.	.
.	.	.	.	4F/	ex-	4A/	ex-
.	.	1G	.	4G/	.	4B-/	-cel-
!	!	!	!	!	!	!LO:TX:t=P:problem=kreska pseudotaktowa	!
.	.	.	.	4A/	.	4c/	-ſis
1G	in	.	.	4B-/	.	4d/	.
.	.	.	.	4A/	.	4c/	.
.	.	2G/	.	4B-/	.	4d/	.
!	!	!	!	!	!	!LO:TX:t=P:problem=kreska pseudotaktowa	!
.	.	.	.	4c/	.	4e/	.
=85-	=85-	=85-	=85-	=85-	=85-	=85-	=85-
0D	ex-	2A/	.	4d/	.	4f/	.
.	.	.	.	4c/	.	4e/	.
.	.	2B-/	.	4d/	.	4f/	.
*	*	*	*	*	*	*custos:a	*
.	.	.	.	4e/	.	4g/	.
*	*	*	*	*	*	*xywh-#61:1173,1305,4225,854	*
!	!	!	!	!	!	!LO:LB:g=original	!
.	.	2A/	.	4f/	.	4a\	.
.	.	.	.	4e/	.	4g\	.
.	.	2A/	.	4d/	.	4f\	.
*	*	*	*	*custos:d	*	*	*
!	!	!	!	!LO:TX:t=P:problem=cztery wykreślone semiminimy oraz błędny kustosz	!	!LO:TX:t=P:problem=kreska pseudotaktowa	!
.	.	.	.	4c/	.	4e\	.
!	!	!	!	!LO:PB:g=original	!	!	!
=86-	=86-	=86-	=86-	=86-	=86-	=86-	=86-
*	*	*	*	*xywh-#251:5772,571,4447,875	*	*	*
2G\	-cel-	1G	.	2B-/	-cel-	2d\	.
2.C/	-ſis	.	.	2.c/	-ſis	2.e\	.
.	.	2A/	.	.	.	.	.
4D/	.	.	.	4B-/	.	4d/	.
!LO:TX:t=P:problem=kreska pseudotaktowa	!	!	!	!	!	!	!
2E/	.	2G/	.	2c/	.	1g\	.
=87-	=87-	=87-	=87-	=87-	=87-	=87-	=87-
1D	.	1A	.	1.d	.	.	.
.	.	.	.	.	.	2f\	.
0.GG	.	0.G	.	.	.	0.g	.
.	.	.	.	2B-/	.	.	.
=88-	=88-	=88-	=88-	=88-	=88-	=88-	=88-
.	.	.	.	0B-	.	.	.
==	==	==	==	==	==	==	==
*-	*-	*-	*-	*-	*-	*-	*-
!!!system-decoration: [(s1,s2,s3,s4)]
!!!ENC: Mateusz Solarz
!!!END: 2022-02-18
!!!EED: Antoni Szymański
!!!EEV: 2022-02-22
!!!ENC-iiif: Antoni Szymański
!!!END-iiif: 2022-09-03
!!!YEC: Copyright 2022 Narodowy Instytut Fryderyka Chopina (https://polishscores.org)
!!!YEM: License CC-BY-4.0 (https://creativecommons.org/licenses/by/4.0)
